!!!COM: Palestrina, Giovanni Perluigi da
!!!OPR: Missa Dilexi quoniam
!!!OMD: Credo
!!!OTL: Et unam sanctam
**kern	**kern	**kern	**kern	**kern
*Ibass	*Itenor	*Itenor	*Icalto	*Icant
!Bassus	!Tenor 2	!Tenor 1	!Altus	!Cantus
*clefF4	*clefGv2	*clefGv2	*clefG2	*clefG2
*k[]	*k[]	*k[]	*k[]	*k[]
*C:ion	*C:ion	*C:ion	*C:ion	*C:ion
*M4/2	*M4/2	*M4/2	*M4/2	*M4/2
=165	=165	=165	=165	=165
2r	2r	1A	1a	1a
2A	2e	.	.	.
2A	2f	1r	1r	1r
2B	2d	.	.	.
=166	=166	=166	=166	=166
1c	1e	0r	0r	0r
2B	2d	.	.	.
2A	2c	.	.	.
=167	=167	=167	=167	=167
2A	2.B	2r	2r	0r
2G#	.	2e	2b	.
.	4B	.	.	.
2.A	1A	2e	2cc	.
.	.	2f	2a	.
8G	.	.	.	.
8F	.	.	.	.
=168	=168	=168	=168	=168
1E	0r	2.g	2.b	2r
.	.	.	.	2ee
.	.	4g	4b	.
1r	.	1a	[1cc	2ee
.	.	.	.	2ff
=169	=169	=169	=169	=169
0r	0r	1e	2cc]	2.gg
.	.	.	2b	.
.	.	.	.	4gg
.	.	2.a	2.cc	2ff
.	.	.	.	2ee
.	.	4g	4b	.
=170	=170	=170	=170	=170
1r	1r	2f	2a	2ee
.	.	2f	2a	2dd
2r	2r	1e	2.g	1ee
2C	2G	.	.	.
.	.	.	4f	.
=171	=171	=171	=171	=171
2C	2G	0r	2.e	0r
2C	2G	.	.	.
.	.	.	4d	.
[1F	[1A	.	1c	.
=172	=172	=172	=172	=172
2F]	2A]	1c	0r	0r
2E	2G	.	.	.
2E	2G	2c	.	.
2C	[2c	2c	.	.
=173	=173	=173	=173	=173
1D	2c]	1f	0r	0r
.	2B	.	.	.
[1C	1c	2e	.	.
.	.	2d	.	.
=174	=174	=174	=174	=174
0C]	2.e	1c	2.g	2.cc
.	4e	.	4g	4cc
.	2e	1r	2g	2cc
.	2e	.	2g	2cc
=175	=175	=175	=175	=175
0r	1d	0r	1.a	1.ff
.	2A	.	.	.
.	[2c	.	2g	2ee
=176	=176	=176	=176	=176
0r	2c]	0r	2g	2ee
.	2A	.	1cc	2cc
.	1G	.	.	1dd
.	.	.	2b	.
=177	=177	=177	=177	=177
1A	2c	2r	2cc	1cc
.	1e	1A	1cc	.
1E	.	.	.	1r
.	2e	2G	2b	.
=178	=178	=178	=178	=178
1F	1A	2c	1a	1r
.	.	2d	.	.
2E	2B	1e	2g	2r
[2C	[2c	.	[2g	[2ee
=179	=179	=179	=179	=179
2C]	2c]	2.e	2g]	2ee]
2C	2c	.	2g	2ee
.	.	4e	.	.
2C	2c	2e	2g	2cc
2C	2c	2e	2g	2cc
=180	=180	=180	=180	=180
1C	1e	1c	1g	1cc
1G	1d	1B	1g	2dd
.	.	.	.	[2b
=181	=181	=181	=181	=181
1E	1e	1G	1g	2b]
.	.	.	.	2cc
1F	1c	2A	1f	[1a
.	.	[2c	.	.
=182	=182	=182	=182	=182
0D	0d	2c]	1f	2a]
.	.	4B	.	2g
.	.	4A	.	.
.	.	1B	1d	1f
=183	=183	=183	=183	=183
0C	2g	1c	2r	2e
.	2c	.	2g	2ee
.	1c	1r	1g	1ee
=184	=184	=184	=184	=184
0r	2f	0r	2a	2dd
.	2e	.	2g	2cc
.	2f	.	2a	2dd
.	2f	.	2a	2cc
=185	=185	=185	=185	=185
1r	2.d	1G	2g	2cc
.	.	.	2g	2b
.	4d	.	.	.
1C	2c	1G	2.e	1cc
.	2e	.	.	.
.	.	.	4f	.
=186	=186	=186	=186	=186
1C	1e	2.c	1g	0r
.	.	4B	.	.
2F	2d	2A	2r	.
2E	2c	2G	2g	.
=187	=187	=187	=187	=187
2F	2d	2A	2f	2r
2F	2c	2A	2f	2cc
2D	2c	2F	2f	4dd
.	.	.	.	4ee
2D	2B	2F	2f	4ff
.	.	.	.	4dd
=188	=188	=188	=188	=188
1C	1c	2G	4e	4ee
.	.	.	4d	4ff
.	.	4g	4c	2.gg
.	.	4f	4d	.
2.c	2r	4e	4e	.
.	.	4d	4f	4ff
.	[2e	[2c	2g	4ee
4B	.	.	.	4dd
=189	=189	=189	=189	=189
4A	2e]	4c]	0a	2cc
4G	.	4B	.	.
4F	2.a	4A	.	2.ff
4E	.	4G	.	.
1D	.	1A	.	.
.	4g	.	.	4ee
.	4f	.	.	4dd
.	4e	.	.	4cc
=190	=190	=190	=190	=190
1G	4d	2.B	[0g	4b
.	4c	.	.	4cc
.	4B	.	.	2.dd
.	4A	8c	.	.
.	.	8d	.	.
2.E	1G	1e	.	.
.	.	.	.	4cc
.	.	.	.	[2cc
4F	.	.	.	.
=191	=191	=191	=191	=191
0G	1G	0d	1g]	2cc]
.	.	.	.	4b
.	.	.	.	4a
.	2r	.	2.g	1b
.	[2g	.	.	.
.	.	.	4f	.
=192	=192	=192	=192	=192
1C	4g]	[0c	4e	[0cc
.	4f	.	4d	.
.	4e	.	4c	.
.	4d	.	4B	.
[1F	4c	.	2A	.
.	4B	.	.	.
.	4A	.	[2a	.
.	4G	.	.	.
=193	=193	=193	=193	=193
2F]	2F	1c_	2a]	1cc_
2E	2G	.	2g	.
1F	1A	1c_	1f	1cc_
=194	=194	=194	=194	=194
0C	0G	0c]	0e	0cc]
==	==	==	==	==
*-	*-	*-	*-	*-
!!!CDT: 1525/^1526/-1594/2/2
!!!OCY: Italia
!!!AGN: Mass (Parody)
!!!AST: renaissance, vocal
!!!ASW: Motet (Maffoni)
!!!PWK: Masses, Book 6
!!!RNB: Cadence finals: G,A
!!!YOR: Le Opere Complete, v. 21, p. 105
!!!YOO: Rome, Italy: Fratelli Scalera
!!!END: 1992//
!!!EED: John Miller
!!!YEC: Copyright 2000, John Miller
!!!YEN: United States of America
!!!YEM: Rights to all derivative electronic formats reserved.
!!!YEM: Refer to licensing agreement for further details.
!!!YEM: This file must be accompanied by the licensing agreement.
!!!YEM: A copy of the licensing agreement may be found at http://www.music-cog.ohio-state.edu/HumdrumDatabases/Palestrina/license.txt
!!!EMD: converted to Humdrum by Bret Aarden
